X: 10
T: A Midwinter Waltz
C: Dave Richardson (1994)
N: Dave was a member of Boys of the Lough for 40 years, until he retired.
N: This was based on a favorite carol remembered from his youth, "In the Bleak Midwinter".
%D:1994
B: Joe Buchanan's Scottish Tome - Page 623.0
I: 623 0
Z: Carl Allison
R: Waltz
L: 1/4
M: 3/4
P: Play A1A2 A1A2 B1B2 B1A2
K: G
"A"|::: G/A/ |\
"G"B>cd | "D"d>BA | "Am"A>BA | "C"G2E/G/ || "Am"A>BA |  "D"A>BA |\
[1,3 "G"G>AB/c/ | "D"A2 :|2,4 "C"G>AG | "G"G2 :|
"^B"|:: A/B/ | "C"c>Bc | "Am"c>Bc | "C"e>de | "Am"A>Bc ||\
"G"d>ed | "Em"B>AG |1,3 "Am"A>BG | "D"A2 :|2 "D"A>BA | "G"G2 :|
"^(A2)"[|] G/A/ | "G"B>cd | "D"d>BA | "Am"A>BA | "C"G2E/G/ ||\
"Am"A>BA |  "D"A>BA | "C"G>AG | "G"G2 |]

%%sep 1 1 500

